**kern
*staff1
*I"Piano
=1-
*clefG2
*k[]
*M4/4
8G/L
8e/
8c/
8e/J
8G/L
8e/
8c/
8e/J
=2
8G/L
8e/
8c/
8e/J
4r
[4ff\
=3
8ff\L]
[8ee\J
16ee\LL]
16ee-\
16dd\
16dd-\JJ
16cc\LK
8b\
16ddn\Jk
16b\LK
8b-\
16dd\Jk
=4
!!linebreak:original
[4a/
16a\LL]
32b\L
32cc\JJJ
32dd\LLL
32ee\
32ff\
32gg\JJJ
4.aa-\
8gg\
=5
4ff\
16ee\LL
16gg\
16eee-\
16ddd\JJ
8ddd-\
4ccc\
8aa-\
=6
[2ff\
8ff\]
24ee\LL
24ff\
24gg\JJ
8.ff\L
16ee\Jk
=7
!!pagebreak:original
2ee\
4dd\
4dd-\
=8
2cc\
4b\
8a#/L
8b#/J
=9
8cc#\L
8dd#\J
[4ee#\
8ee#\L]
8een\J
[4gg\
=10
4gg\]
2ff\
4gg\
=11
!!linebreak:original
8gg#\L
8aa\J
2aa#\
[4bb\
=12
4bb\]
2ccc\
8f/L
8a-/J
=13
8dd-\L
8ff\
8aa-\
8ddd-\J
8ee-\L
8gg\
8bb-\
8eee-\J
=14
8ff\L
8aa\
8ccc\
8fff\J
8ee-\L
8gg\
8ccc\
8fff\J
=15
!!linebreak:original
8ff\L
8aa\
8ccc\
8fff\J
8ee-\L
8gg\
8ccc\
8fff\J
=16
8dd\L
8ff\
8bb-\
8fff\J
8eee\L
8ccc#\
8gg#\
8ee\J
=17
8dd\L
8ff\
8bb-\
8fff\J
8eee\L
8ccc#\
8gg#\
8ee\J
=18
8r
8ee\L
8aa-\
8gg\J
8gg-\
4ee-\
[8dd-\
=19
!!pagebreak:original
4dd-\]
2.cc\
=20
8r
8f/L
8a/
8b/J
8cc\L
8dd-\
8ee-\
8aa\J
=21
1ee 1gg
==
*-
